assets/Partying face/Flat/partying_face_flat.svg

<svg width="32" height="32" viewBox="0 0 32 32" fill="none" xmlns="http://www.w3.org/2000/svg">
<path d="M16 29C24.6684 29 29 23.1797 29 16C29 8.8203 24.6684 3 16 3C7.33161 3 3 8.8203 3 16C3 23.1797 7.33161 29 16 29Z" fill="#FFB02E"/>
<path d="M5 3H17L3 16V5C3 3.89543 3.89543 3 5 3Z" fill="#BB1D80"/>
<path d="M3 8.41421L8.41421 3H5.58579L3 5.58579V8.41421Z" fill="#5092FF"/>
<path d="M3 13.4142L13.4142 3H10.5858L3 10.5858V13.4142Z" fill="#5092FF"/>
<path d="M28.5 5.75C28.5 5.33579 28.1642 5 27.75 5C27.3358 5 27 5.33579 27 5.75C27 7.05188 25.909 8 24.75 8C24.3358 8 24 8.33579 24 8.75C24 9.16421 24.3358 9.5 24.75 9.5C26.668 9.5 28.5 7.94812 28.5 5.75Z" fill="#F70A8D"/>
<path d="M10.5 24.75C10.5 24.3358 10.1642 24 9.75 24C9.33579 24 9 24.3358 9 24.75C9 26.0519 7.90902 27 6.75 27C6.33579 27 6 27.3358 6 27.75C6 28.1642 6.33579 28.5 6.75 28.5C8.66796 28.5 10.5 26.9481 10.5 24.75Z" fill="#F70A8D"/>
<path d="M9.98156 14.1909C10.0296 13.9436 10.1397 13.6405 10.349 13.4125C10.5283 13.2171 10.847 13 11.4999 13C12.1417 13 12.4685 13.2216 12.6572 13.4288C12.8753 13.6683 12.9804 13.9737 13.0147 14.1711C13.1092 14.7152 13.6269 15.0797 14.171 14.9853C14.7152 14.8908 15.0797 14.373 14.9852 13.8289C14.9062 13.374 14.6799 12.6794 14.1357 12.082C13.562 11.4522 12.6955 11 11.4999 11C10.3156 11 9.45269 11.4313 8.87551 12.0601C8.32826 12.6564 8.10696 13.3533 8.01833 13.8091C7.91291 14.3513 8.26694 14.8762 8.80907 14.9816C9.3512 15.087 9.87614 14.733 9.98156 14.1909Z" fill="#402A32"/>
<path d="M19.9818 14.1909C20.0299 13.9436 20.14 13.6405 20.3492 13.4125C20.5285 13.2171 20.8472 13 21.5002 13C22.1419 13 22.4687 13.2216 22.6574 13.4288C22.8756 13.6683 22.9807 13.9737 23.0149 14.1711C23.1094 14.7152 23.6271 15.0797 24.1713 14.9853C24.7154 14.8908 25.0799 14.373 24.9854 13.8289C24.9064 13.374 24.6802 12.6794 24.1359 12.082C23.5623 11.4522 22.6957 11 21.5002 11C20.3159 11 19.4529 11.4313 18.8758 12.0601C18.3285 12.6564 18.1072 13.3533 18.0186 13.8091C17.9132 14.3513 18.2672 14.8762 18.8093 14.9816C19.3514 15.087 19.8764 14.733 19.9818 14.1909Z" fill="#402A32"/>
<path d="M25 3C25 3.55228 24.5523 4 24 4C23.4477 4 23 3.55228 23 3C23 2.44772 23.4477 2 24 2C24.5523 2 25 2.44772 25 3Z" fill="#00A6ED"/>
<path d="M9 21C9.55228 21 10 20.5523 10 20C10 19.4477 9.55228 19 9 19C8.44772 19 8 19.4477 8 20C8 20.5523 8.44772 21 9 21Z" fill="#00A6ED"/>
<path d="M26 29C26.5523 29 27 28.5523 27 28C27 27.4477 26.5523 27 26 27C25.4477 27 25 27.4477 25 28C25 28.5523 25.4477 29 26 29Z" fill="#00A6ED"/>
<path d="M26.3214 13C24.4871 13 23 14.4871 23 16.3214V16.45C23 17.8583 24.1417 19 25.55 19C26.627 19 27.5 18.127 27.5 17.05V16.75C27.5 16.3358 27.1642 16 26.75 16C26.3358 16 26 16.3358 26 16.75V17.05C26 17.2985 25.7985 17.5 25.55 17.5C24.9701 17.5 24.5 17.0299 24.5 16.45V16.3214C24.5 15.3155 25.3155 14.5 26.3214 14.5H26.5C27.6046 14.5 28.5 15.3954 28.5 16.5V16.8611C28.5 18.5947 27.0947 20 25.3611 20H19C18.5858 20 18.25 20.3358 18.25 20.75C18.25 21.1642 18.5858 21.5 19 21.5H25.3611C27.9231 21.5 30 19.4231 30 16.8611V16.5C30 14.567 28.433 13 26.5 13H26.3214Z" fill="#00A6ED"/>
<path d="M17.6699 16.92C17.1176 16.92 16.6699 17.3677 16.6699 17.92C16.6699 18.4723 17.1176 18.92 17.6699 18.92C17.9576 18.92 18.1899 19.1523 18.1899 19.44C18.1899 19.7277 17.9576 19.96 17.6699 19.96C17.1176 19.96 16.6699 20.4077 16.6699 20.96C16.6699 20.96 16.6699 20.96 16.6699 20.96C16.6699 21.5123 17.1176 21.96 17.6699 21.96C17.9576 21.96 18.1899 22.1923 18.1899 22.48C18.1899 22.7677 17.9576 23 17.6699 23C17.1176 23 16.6699 23.4477 16.6699 24C16.6699 24.5523 17.1176 25 17.6699 25C19.0622 25 20.1899 23.8723 20.1899 22.48C20.1899 21.909 20.0002 21.3825 19.6804 20.96C20.0002 20.5375 20.1899 20.011 20.1899 19.44C20.1899 18.0477 19.0622 16.92 17.6699 16.92Z" fill="#402A32"/>
</svg>

<svg xmlns="http://www.w3.org/2000/svg" width="32" height="32" fill="none"><path fill="#FFB02E" d="M16 29c8.668 0 13-5.82 13-13S24.668 3 16 3 3 8.82 3 16s4.332 13 13 13Z"/><path fill="#BB1D80" d="M5 3h12L3 16V5a2 2 0 0 1 2-2Z"/><path fill="#5092FF" d="M3 8.414 8.414 3H5.586L3 5.586v2.828ZM3 13.414 13.414 3h-2.828L3 10.586v2.828Z"/><path fill="#F70A8D" d="M28.5 5.75a.75.75 0 0 0-1.5 0C27 7.052 25.909 8 24.75 8a.75.75 0 0 0 0 1.5c1.918 0 3.75-1.552 3.75-3.75ZM10.5 24.75a.75.75 0 0 0-1.5 0C9 26.052 7.909 27 6.75 27a.75.75 0 0 0 0 1.5c1.918 0 3.75-1.552 3.75-3.75Z"/><path fill="#402A32" d="M9.982 14.19c.048-.246.158-.55.367-.777.18-.196.498-.413 1.15-.413.643 0 .97.222 1.158.429.218.24.323.545.358.742a1 1 0 0 0 1.97-.342 3.544 3.544 0 0 0-.85-1.747C13.563 11.452 12.696 11 11.5 11c-1.184 0-2.047.431-2.624 1.06-.548.596-.769 1.293-.858 1.75a1 1 0 1 0 1.964.38ZM19.982 14.19c.048-.246.158-.55.367-.777.18-.196.498-.413 1.151-.413.642 0 .969.222 1.157.429.219.24.324.545.358.742a1 1 0 0 0 1.97-.342 3.543 3.543 0 0 0-.85-1.747C23.563 11.452 22.696 11 21.5 11c-1.184 0-2.047.431-2.624 1.06-.548.596-.769 1.293-.857 1.75a1 1 0 1 0 1.963.38Z"/><path fill="#00A6ED" d="M25 3a1 1 0 1 1-2 0 1 1 0 0 1 2 0ZM9 21a1 1 0 1 0 0-2 1 1 0 0 0 0 2ZM26 29a1 1 0 1 0 0-2 1 1 0 0 0 0 2ZM26.321 13A3.321 3.321 0 0 0 23 16.321v.129A2.55 2.55 0 0 0 25.55 19a1.95 1.95 0 0 0 1.95-1.95v-.3a.75.75 0 0 0-1.5 0v.3a.45.45 0 0 1-.45.45c-.58 0-1.05-.47-1.05-1.05v-.129c0-1.006.816-1.821 1.821-1.821h.179a2 2 0 0 1 2 2v.361A3.139 3.139 0 0 1 25.361 20H19a.75.75 0 0 0 0 1.5h6.361A4.639 4.639 0 0 0 30 16.861V16.5a3.5 3.5 0 0 0-3.5-3.5h-.179Z"/><path fill="#402A32" d="M17.67 16.92a1 1 0 1 0 0 2 .52.52 0 1 1 0 1.04 1 1 0 1 0 0 2 .52.52 0 1 1 0 1.04 1 1 0 1 0 0 2 2.52 2.52 0 0 0 2.01-4.04 2.52 2.52 0 0 0-2.01-4.04Z"/></svg>
